Chrome.svg

<svg xmlns:rdf="http://www.w3.org/1999/02/22-rdf-syntax-ns#" xmlns="http://www.w3.org/2000/svg" version="1.1" xml:space="preserve" viewBox="0 0 170.21801 170.27679" height="100%" width="100%" enable-background="new 0 0 648.371 170.775" y="0px" x="0px" xmlns:cc="http://creativecommons.org/ns#" xmlns:dc="http://purl.org/dc/elements/1.1/"><circle transform="translate(.00021318 -.24996)" cy="85.713" cx="85.314" r="83.805" fill="#FFF"/><path d="m138.64 100.7c0-29.454-23.877-53.331-53.33-53.331-29.454 0-53.331 23.877-53.331 53.331h15.237c0-21.039 17.055-38.094 38.093-38.094s38.093 17.055 38.093 38.094" fill-opacity=".1"/><circle fill-opacity=".1" transform="translate(.00021318 -.24996)" cy="96.379" cx="89.123" r="28.951"/><linearGradient id="circle53_2_" x1="-175.67" gradientUnits="userSpaceOnUse" y1="582.2" gradientTransform="matrix(82 0 0 -82 14490 47795)" x2="-175.67" y2="581.44"><stop stop-color="#81B4E0" offset="0"/><stop stop-color="#0C5A94" offset="1"/></linearGradient><circle transform="translate(.00021318 -.24996)" cy="85.712" cx="85.314" r="31.236" fill="url(#circle53_2_)"/><linearGradient id="path55_2_" x1="-114.52" gradientUnits="userSpaceOnUse" y1="250.39" gradientTransform="matrix(1 0 0 -1 202.5 250.53)" x2="-114.52" y2="181.06"><stop stop-color="#F06B59" offset="0"/><stop stop-color="#DF2227" offset="1"/></linearGradient><path d="m161.5 47.369c-20.975-42.2-72.188-59.407-114.39-38.433-13.159 6.54-24.405 16.367-32.65 28.53l34.284 59.425c-6.314-20.068 4.837-41.456 24.905-47.769 3.529-1.11 7.203-1.701 10.902-1.752" fill="url(#path55_2_)"/><linearGradient id="path57_2_" x1="-181.74" gradientUnits="userSpaceOnUse" y1="104.41" gradientTransform="matrix(1 0 0 -1 202.5 250.53)" x2="-146.69" y2="162.31"><stop stop-color="#388B41" offset="0"/><stop stop-color="#4CB749" offset="1"/></linearGradient><path d="m14.461 37.466c-26.241 39.144-15.781 92.148 23.363 118.39 12.111 8.119 26.1 12.999 40.633 14.175l35.808-60.948c-13.389 16.228-37.397 18.529-53.625 5.14-5.512-4.547-9.634-10.552-11.895-17.33" fill="url(#path57_2_)"/><linearGradient id="path59_2_" x1="-64.337" gradientUnits="userSpaceOnUse" y1="98.252" gradientTransform="matrix(1 0 0 -1 202.5 250.53)" x2="-101.67" y2="188.15"><stop stop-color="#E4B022" offset="0"/><stop stop-color="#FCD209" offset=".3"/></linearGradient><path d="m78.457 170.03c46.991 3.552 87.965-31.662 91.518-78.653 1.146-15.162-1.779-30.354-8.476-44.007h-76.948c21.037 0.097 38.014 17.23 37.917 38.268-0.039 8.511-2.928 16.766-8.205 23.444" fill="url(#path59_2_)"/><linearGradient id="path61_2_" x1="-170.14" gradientUnits="userSpaceOnUse" y1="155.92" gradientTransform="matrix(1 0 0 -1 202.5 250.53)" x2="-170.14" y2="216.87"><stop stop-opacity=".15" offset="0"/><stop stop-opacity=".06" offset=".3"/><stop stop-opacity=".03" offset="1"/></linearGradient><path d="m14.461 37.466 34.284 59.425c-2.54-8.547-2-17.714 1.523-25.904l-34.284-35.807" fill="url(#path61_2_)"/><linearGradient id="path63_2_" x1="-86.009" gradientUnits="userSpaceOnUse" y1="136.24" gradientTransform="matrix(1 0 0 -1 202.5 250.53)" x2="-127.91" y2="93.575"><stop stop-opacity=".15" offset="0"/><stop stop-opacity=".06" offset=".3"/><stop stop-opacity=".03" offset="1"/></linearGradient><path d="m78.457 170.03 35.808-60.948c-5.65 6.737-13.456 11.312-22.094 12.951l-15.238 47.997" fill="url(#path63_2_)"/><linearGradient id="path65_2_" x1="-86.616" gradientUnits="userSpaceOnUse" y1="123.96" gradientTransform="matrix(1 0 0 -1 202.5 250.53)" x2="-80.521" y2="184.15"><stop stop-opacity=".15" offset="0"/><stop stop-opacity=".06" offset=".3"/><stop stop-opacity=".03" offset="1"/></linearGradient><path d="m161.5 47.369h-76.948c11.59 0.054 22.526 5.381 29.712 14.476l48.759-12.19" fill="url(#path65_2_)"/></svg>

<svg xmlns="http://www.w3.org/2000/svg" viewBox="0 0 170.21801 170.27679"><circle transform="translate(0 -.25)" cy="85.713" cx="85.314" r="83.805" fill="#FFF"/><path d="M138.64 100.7c0-29.454-23.877-53.33-53.33-53.33-29.454 0-53.33 23.876-53.33 53.33h15.236c0-21.04 17.055-38.094 38.093-38.094S123.4 79.66 123.4 100.7" fill-opacity=".1"/><circle fill-opacity=".1" transform="translate(0 -.25)" cy="96.379" cx="89.123" r="28.951"/><linearGradient id="a" x1="-175.67" gradientUnits="userSpaceOnUse" y1="582.2" gradientTransform="matrix(82 0 0 -82 14490 47795)" x2="-175.67" y2="581.44"><stop stop-color="#81B4E0" offset="0"/><stop stop-color="#0C5A94" offset="1"/></linearGradient><circle transform="translate(0 -.25)" cy="85.712" cx="85.314" r="31.236" fill="url(#a)"/><linearGradient id="b" x1="-114.52" gradientUnits="userSpaceOnUse" y1="250.39" gradientTransform="matrix(1 0 0 -1 202.5 250.53)" x2="-114.52" y2="181.06"><stop stop-color="#F06B59" offset="0"/><stop stop-color="#DF2227" offset="1"/></linearGradient><path d="M161.5 47.37C140.525 5.17 89.312-12.04 47.11 8.935a85.317 85.317 0 0 0-32.65 28.53L48.744 96.89C42.43 76.824 53.58 55.436 73.65 49.123c3.528-1.11 7.202-1.7 10.9-1.752" fill="url(#b)"/><linearGradient id="c" x1="-181.74" gradientUnits="userSpaceOnUse" y1="104.41" gradientTransform="matrix(1 0 0 -1 202.5 250.53)" x2="-146.69" y2="162.31"><stop stop-color="#388B41" offset="0"/><stop stop-color="#4CB749" offset="1"/></linearGradient><path d="M14.46 37.466c-26.24 39.144-15.78 92.148 23.364 118.39a85.33 85.33 0 0 0 40.633 14.175l35.808-60.947c-13.39 16.228-37.397 18.53-53.625 5.14a38.09 38.09 0 0 1-11.895-17.33" fill="url(#c)"/><linearGradient id="d" x1="-64.337" gradientUnits="userSpaceOnUse" y1="98.252" gradientTransform="matrix(1 0 0 -1 202.5 250.53)" x2="-101.67" y2="188.15"><stop stop-color="#E4B022" offset="0"/><stop stop-color="#FCD209" offset=".3"/></linearGradient><path d="M78.457 170.03c46.99 3.552 87.965-31.662 91.518-78.653A85.32 85.32 0 0 0 161.5 47.37H84.55c21.038.097 38.015 17.23 37.918 38.268a38.098 38.098 0 0 1-8.205 23.444" fill="url(#d)"/><linearGradient id="e" x1="-170.14" gradientUnits="userSpaceOnUse" y1="155.92" gradientTransform="matrix(1 0 0 -1 202.5 250.53)" x2="-170.14" y2="216.87"><stop stop-opacity=".15" offset="0"/><stop stop-opacity=".06" offset=".3"/><stop stop-opacity=".03" offset="1"/></linearGradient><path d="M14.46 37.466L48.746 96.89a38.094 38.094 0 0 1 1.523-25.903L15.984 35.18" fill="url(#e)"/><linearGradient id="f" x1="-86.009" gradientUnits="userSpaceOnUse" y1="136.24" gradientTransform="matrix(1 0 0 -1 202.5 250.53)" x2="-127.91" y2="93.575"><stop stop-opacity=".15" offset="0"/><stop stop-opacity=".06" offset=".3"/><stop stop-opacity=".03" offset="1"/></linearGradient><path d="M78.457 170.03l35.808-60.948a38.106 38.106 0 0 1-22.094 12.95L76.934 170.03" fill="url(#f)"/><linearGradient id="g" x1="-86.616" gradientUnits="userSpaceOnUse" y1="123.96" gradientTransform="matrix(1 0 0 -1 202.5 250.53)" x2="-80.521" y2="184.15"><stop stop-opacity=".15" offset="0"/><stop stop-opacity=".06" offset=".3"/><stop stop-opacity=".03" offset="1"/></linearGradient><path d="M161.5 47.37H84.552a38.093 38.093 0 0 1 29.712 14.475l48.76-12.19" fill="url(#g)"/></svg>
